PortableApps/LibreOfficePortable/App/libreoffice/help/media/icon-themes/cmd/lc_autooutline.svg

<svg viewBox="0 0 24 24" xmlns="http://www.w3.org/2000/svg"><path d="m22 3v5h-7v-5zm-1 1h-5v3h5zm1 6v5h-7v-5zm-1 1h-5v3h5zm1 6v5h-7v-5zm-1 1h-5v3h5z" fill="#4d82b8"/><path d="m21 4v3h-5v-3zm0 7v3h-5v-3zm-13 0v3h-5v-3zm13 7v3h-5v-3z" fill="#fff"/><path d="m18.134766 2c-.130566.00156-.255341.054138-.347657.1464844l-15.6406246 15.6406246c-.1964898.195487-.1964898.513498 0 .708985l3.3574218 3.357422c.1954865.196489.5134979.196489.7089844 0l15.6406254-15.6406254c.196489-.1954865.196489-.5134979 0-.7089844l-3.357422-3.3574218c-.095662-.0957059-.226027-.1485566-.361328-.1464844z" fill="#808080"/><path d="m18.141602 3.1831374-5.474923 5.4749224 2.657284 2.7112162 5.474923-5.4929z" fill="#fff"/><path d="m6.004237 1h5.995763l-4 4h2l-9 7 3-6h-2z" fill="#eac282"/></svg>

<svg viewBox="0 0 24 24" xmlns="http://www.w3.org/2000/svg">
  <path
     style="fill:#4d82b8"
     d="M 22,3 V 8 H 15 V 3 Z m -1,1 h -5 v 3 h 5 z m 1,6 v 5 h -7 v -5 z m -1,1 h -5 v 3 h 5 z m 1,6 v 5 h -7 v -5 z m -1,1 h -5 v 3 h 5 z" />
  <path
     style="fill:#ffffff"
     d="M 21,4 V 7 H 16 V 4 Z m 0,7 v 3 H 16 V 11 Z M 8,11 v 3 H 3 v -3 z m 13,7 v 3 h -5 v -3 z"
     />
  <path
     style="fill:#808080"
     d="M 18.134766,2 C 18.0042,2.00156 17.879425,2.054138 17.787109,2.1464844 L 2.1464844,17.787109 c -0.1964898,0.195487 -0.1964898,0.513498 0,0.708985 l 3.3574218,3.357422 c 0.1954865,0.196489 0.5134979,0.196489 0.7089844,0 L 21.853516,6.2128906 c 0.196489,-0.1954865 0.196489,-0.5134979 0,-0.7089844 L 18.496094,2.1464844 C 18.400432,2.0507785 18.270067,1.9979278 18.134766,2 Z" />
  <path
     style="fill:#ffffff"
     d="m 18.141602,3.1831374 -5.474923,5.4749224 2.657284,2.7112162 5.474923,-5.4929 z"
     />
  <path
     style="fill:#eac282"
     d="M 6.004237,1 H 12 L 8,5 h 2 L 1,12 4,6 H 2 Z"
     />
</svg>
